X:55
T:The Pretty Girls of Abbeyfeale
R:song air
H:  From memory, as I learned it from my father: a good setting is given i
H:
H:Chappell; but I believe it is Irish.  Abbeyfeale a town in Co. Limerick.
B:
M:6/8
L:1/8
K:G
G|B2B B2d|c2A F2G|A<BA G2G|(G3 G2) G|
B2c d2e|=f2d c2B|c2d e2c|(d3 d2) G|
B2c d2 e|=f2d c2B|c2 d e2c|(d3 d2) c|
B2B B2d|c2A F2G|A<BA G2G|(G3 G2)||
